svg/24/bug--filled.svg

<svg width="24" height="24" viewBox="0 0 24 24" fill="currentColor" xmlns="http://www.w3.org/2000/svg"><path d="M9.25 2.00067C9.66421 2.00067 10 2.33646 10 2.75067V4.34141C10.6256 4.12031 11.2987 4 12 4C12.7013 4 13.3744 4.12031 14 4.34141V2.75067C14 2.33646 14.3358 2.00067 14.75 2.00067C15.1642 2.00067 15.5 2.33646 15.5 2.75067V5.12605C16.3412 5.73116 17.0193 6.54864 17.456 7.5L20.2519 7.5C20.6661 7.5 21.0019 7.83579 21.0019 8.25C21.0019 8.66421 20.6661 9 20.2519 9L3.74695 9C3.33274 9 2.99695 8.66421 2.99695 8.25C2.99695 7.83579 3.33274 7.5 3.74695 7.5H6.53717L6.54403 7.50003C6.98067 6.54866 7.65883 5.73116 8.5 5.12605V2.75067C8.5 2.33646 8.83579 2.00067 9.25 2.00067Z"/><path d="M2.99695 12.25C2.99695 11.8358 3.33273 11.5 3.74695 11.5H5.99695L6 11.5V10.5H11.25V20.9536C8.96862 20.6691 7.085 19.1038 6.34141 17H3.76611C3.3519 17 3.01611 16.6642 3.01611 16.25C3.01611 15.8358 3.3519 15.5 3.76611 15.5H6.02054C6.00694 15.3351 6 15.1684 6 15V13L5.99695 13H3.74695C3.33273 13 2.99695 12.6642 2.99695 12.25Z"/><path d="M12.75 10.5L18 10.5V11.5H20.25C20.6642 11.5 21 11.8358 21 12.25C21 12.6642 20.6642 13 20.25 13H18V15C18 15.1684 17.9931 15.3351 17.9795 15.5H20.25C20.6642 15.5 21 15.8358 21 16.25C21 16.6642 20.6642 17 20.25 17H17.6586C16.915 19.1038 15.0314 20.6691 12.75 20.9536V10.5Z"/></svg>

<svg xmlns="http://www.w3.org/2000/svg" width="24" height="24" fill="currentColor" viewBox="0 0 24 24">
  <path d="M9.25 2a.75.75 0 0 1 .75.75v1.591a5.99 5.99 0 0 1 2-.34c.701 0 1.375.12 2 .34v-1.59a.75.75 0 0 1 1.5 0v2.375A6.024 6.024 0 0 1 17.456 7.5h2.796a.75.75 0 0 1 0 1.5H3.747a.75.75 0 0 1 0-1.5h2.797A6.024 6.024 0 0 1 8.5 5.126V2.751A.75.75 0 0 1 9.25 2ZM2.997 12.25a.75.75 0 0 1 .75-.75H6v-1h5.25v10.454A6.006 6.006 0 0 1 6.342 17H3.766a.75.75 0 0 1 0-1.5h2.255A6.083 6.083 0 0 1 6 15v-2H3.746a.75.75 0 0 1-.75-.75Zm9.753-1.75H18v1h2.25a.75.75 0 1 1 0 1.5H18v2c0 .168-.007.335-.02.5h2.27a.75.75 0 1 1 0 1.5h-2.59a6.006 6.006 0 0 1-4.909 3.954V10.5Z"/>
</svg>
